X:1
T:[ID 1-39]
T:[ID 1-39]
T:Bezeichnung standardisiert: Menuett Menuet
T:Urheber unbekannt Erstbeleg: vor 1767 (Datum in der schriftlichen Quelle) Datum in der hier transkribierten schriftlichen Quelle: 1776 - 1791
C:Urheber unbekannt
C:Erstbeleg: vor 1767 (Datum in der schriftlichen Quelle)
C:Datum in der hier transkribierten schriftlichen Quelle: 1776 - 1791
L:1/8
M:3/4
K:D
V:1 treble 
V:1
 d4 (3def | edcB A2 | e4 (3efg | fedc d2 | f2 a^g a2 | Ace^g a2 | BdcBA^G | A6 :: d4 (3AB=c | %9
 BAGF G2 | e4 (3Bcd | cBAG A2 |"^O)" a4 b2 | a2 bc' d'2 |"^O)" a4 b2 | a2 bc' d'2 | egfedc | d6 :| %18

